images_sukapura_svg/cmd/lc_mergecells.svg

<svg viewBox="0 0 24 24" xmlns="http://www.w3.org/2000/svg" xmlns:xlink="http://www.w3.org/1999/xlink"><linearGradient id="a" gradientUnits="userSpaceOnUse" x1="44" x2="44" y1="13" y2="4"><stop offset="0" stop-color="#0040dd"/><stop offset="1" stop-color="#0a84ff"/></linearGradient><filter id="b" color-interpolation-filters="sRGB" height="1.094553" width="1.097492" x="-.048746" y="-.047277"><feGaussianBlur stdDeviation=".36559322"/></filter><path d="m3 4.0000001h18v18.5593219h-18z" filter="url(#b)" opacity=".15" stroke-width="1.015418"/><path d="m3 3v18h18v-18z" fill="#fff"/><path d="m8 3v2h-5v1h5v3h-2.4238281-.1367188-1.9082031-.53125v.5.5h.53125.3476562 3.0390626 10.1718752 3.039062.339844.53125v-.5-.5h-.53125-1.900391-.136718-2.431641v-3h5v-1h-5v-2h-1v2h-6v-2zm1 3h6v3h-6zm-6 11v.5.5h.53125 1.9335938.1660156 2.3691406v3h1v-3h6v3h1v-3h2.376953.166016 1.925781.53125v-.5-.5h-.53125-.353516-3.035156-10.1523436-3.0351563-.3613281z" fill="#bababa"/><path d="m2 2v1 3 4 1.875 3.228516 1.896484 4c0 .554.446 1 1 1h18c.554 0 1-.446 1-1v-3-2.888672-3.24414-1.867188-1-3-3-1h-1-18zm1 1h5 1 6 1 5v2 1 3 1 .869141 5.24414 1.886719 3h-5-1-6-1-5v-3-1-.894531-5.228516-.876953-1-3-1z" fill="#69696e"/><path d="m3 9v1h18v-1zm0 8v1h18v-1z" fill="url(#a)"/></svg>

<?xml version="1.0" encoding="UTF-8" standalone="no"?>
<svg
   xmlns:dc="http://purl.org/dc/elements/1.1/"
   xmlns:cc="http://creativecommons.org/ns#"
   xmlns:rdf="http://www.w3.org/1999/02/22-rdf-syntax-ns#"
   xmlns:svg="http://www.w3.org/2000/svg"
   xmlns="http://www.w3.org/2000/svg"
   xmlns:xlink="http://www.w3.org/1999/xlink"
   xmlns:sodipodi="http://sodipodi.sourceforge.net/DTD/sodipodi-0.dtd"
   xmlns:inkscape="http://www.inkscape.org/namespaces/inkscape"
   viewBox="0 0 24 24"
   version="1.1"
   id="svg14"
   sodipodi:docname="lc_mergecells.svg"
   inkscape:export-filename="/home/rizmut/Dokumen/Rizmut/Github/libreoffice-style-sukapura/images_sukapura/cmd/lc_mergecells.png"
   inkscape:export-xdpi="96"
   inkscape:export-ydpi="96"
   inkscape:version="0.92.3 (unknown)">
  <metadata
     id="metadata20">
    <rdf:RDF>
      <cc:Work
         rdf:about="">
        <dc:format>image/svg+xml</dc:format>
        <dc:type
           rdf:resource="http://purl.org/dc/dcmitype/StillImage" />
        <dc:title></dc:title>
      </cc:Work>
    </rdf:RDF>
  </metadata>
  <defs
     id="defs18">
    <filter
       style="color-interpolation-filters:sRGB"
       id="b"
       height="1.094553"
       width="1.097492"
       x="-0.048746001"
       y="-0.047277">
      <feGaussianBlur
         stdDeviation=".36559322"
         id="feGaussianBlur957" />
    </filter>
    <linearGradient
       gradientTransform="translate(-41,-2)"
       id="a"
       gradientUnits="userSpaceOnUse"
       x1="12"
       x2="12"
       y1="3"
       y2="21">
      <stop
         offset="0"
         stop-color="#efefef"
         id="stop948" />
      <stop
         offset=".33333334"
         stop-color="#fff"
         id="stop950" />
      <stop
         offset=".8888889"
         stop-color="#fff"
         id="stop952" />
      <stop
         offset="1"
         stop-color="#f5f5f5"
         id="stop954" />
    </linearGradient>
    <linearGradient
       gradientTransform="translate(32,-5)"
       id="a-3"
       gradientUnits="userSpaceOnUse"
       x1="14"
       x2="13.79661"
       y1="22"
       y2="2.1355929">
      <stop
         offset="0"
         stop-color="#0040dd"
         id="stop1604" />
      <stop
         offset="1"
         stop-color="#0a84ff"
         id="stop1606" />
    </linearGradient>
    <linearGradient
       inkscape:collect="always"
       xlink:href="#a-3"
       id="linearGradient2231"
       x1="12"
       y1="18"
       x2="12"
       y2="9"
       gradientUnits="userSpaceOnUse" />
    <filter
       style="color-interpolation-filters:sRGB"
       id="b-6"
       height="1.094553"
       width="1.097492"
       x="-0.048746001"
       y="-0.047277">
      <feGaussianBlur
         stdDeviation=".36559322"
         id="feGaussianBlur957-7" />
    </filter>
  </defs>
  <sodipodi:namedview
     pagecolor="#ffffff"
     bordercolor="#666666"
     borderopacity="1"
     objecttolerance="10"
     gridtolerance="10"
     guidetolerance="10"
     inkscape:pageopacity="0"
     inkscape:pageshadow="2"
     inkscape:window-width="1366"
     inkscape:window-height="699"
     id="namedview16"
     showgrid="true"
     inkscape:zoom="16"
     inkscape:cx="7.001851"
     inkscape:cy="13.067215"
     inkscape:window-x="0"
     inkscape:window-y="0"
     inkscape:window-maximized="1"
     inkscape:current-layer="svg14">
    <inkscape:grid
       type="xygrid"
       id="grid827" />
  </sodipodi:namedview>
  <path
     inkscape:connector-curvature="0"
     style="opacity:0.15;stroke-width:1.01541805;filter:url(#b-6)"
     d="M 3,4.0000001 H 21 V 22.559322 H 3 Z"
     id="path960" />
  <path
     d="M 3,3 V 21 H 21 V 3 Z"
     id="path2"
     inkscape:connector-curvature="0"
     style="fill:#ffffff"
     sodipodi:nodetypes="ccccc" />
  <path
     style="fill:#bababa;fill-opacity:1"
     d="M 8 3 L 8 5 L 3 5 L 3 6 L 8 6 L 8 9 L 5.5761719 9 L 5.4394531 9 L 3.53125 9 L 3 9 L 3 9.5 L 3 10 L 3.53125 10 L 3.8789062 10 L 6.9179688 10 L 17.089844 10 L 20.128906 10 L 20.46875 10 L 21 10 L 21 9.5 L 21 9 L 20.46875 9 L 18.568359 9 L 18.431641 9 L 16 9 L 16 6 L 21 6 L 21 5 L 16 5 L 16 3 L 15 3 L 15 5 L 9 5 L 9 3 L 8 3 z M 9 6 L 15 6 L 15 9 L 9 9 L 9 6 z M 3 17 L 3 17.5 L 3 18 L 3.53125 18 L 5.4648438 18 L 5.6308594 18 L 8 18 L 8 21 L 9 21 L 9 18 L 15 18 L 15 21 L 16 21 L 16 18 L 18.376953 18 L 18.542969 18 L 20.46875 18 L 21 18 L 21 17.5 L 21 17 L 20.46875 17 L 20.115234 17 L 17.080078 17 L 6.9277344 17 L 3.8925781 17 L 3.53125 17 L 3 17 z "
     id="path4" />
  <path
     style="fill:#69696e;fill-opacity:1"
     d="M 2 2 L 2 3 L 2 6 L 2 10 L 2 11.875 L 2 15.103516 L 2 17 L 2 21 C 2 21.554 2.446 22 3 22 L 21 22 C 21.554 22 22 21.554 22 21 L 22 18 L 22 15.111328 L 22 11.867188 L 22 10 L 22 9 L 22 6 L 22 3 L 22 2 L 21 2 L 3 2 L 2 2 z M 3 3 L 8 3 L 9 3 L 15 3 L 16 3 L 21 3 L 21 5 L 21 6 L 21 9 L 21 10 L 21 10.869141 L 21 16.113281 L 21 18 L 21 21 L 16 21 L 15 21 L 9 21 L 8 21 L 3 21 L 3 18 L 3 17 L 3 16.105469 L 3 10.876953 L 3 10 L 3 9 L 3 6 L 3 5 L 3 3 z "
     id="path6" />
  <path
     style="opacity:1;fill:url(#linearGradient2231);fill-opacity:1;stroke:none;stroke-width:1;stroke-linecap:round;stroke-linejoin:round;stroke-miterlimit:4;stroke-dasharray:none;stroke-opacity:0"
     d="M 3 9 L 3 10 L 21 10 L 21 9 L 3 9 z M 3 17 L 3 18 L 21 18 L 21 17 L 3 17 z "
     id="rect2220" />
</svg>
